X:33
T:High Level
Z: id:dc-hornpipe-30
M:C|
L:1/8
K:G Major
BA|GBDG BDGB|dGBd GBAG|(3ABA FA DAFA|fed^c ed=cA|!
GBDG BDGB|dGBd GBAG|EFGA Bd^cd|edcA G2:|!
AG|FdAG FdAF|D2FA dcBA|BdGd BdGd|BGBd gfed|!
^ceAe ceAe|^cAce aecA|d^cde fdce|d2d^c d2:|!
(3def|g2dg ecAF|GdBG D2GF|EcEc DBDB|(3ABA FA GFEc|!
DBGF EcAF|GdBG D2GF|EGce dBGB|ADFA G2:|!

